icons/outline/message-2-cog.svg

<!--
category: Communication
tags: [settings, configure, gear, adjust, tune, tool, modify, customize, control, setup]
version: "2.10"
unicode: "f95f"
-->
<svg
  xmlns="http://www.w3.org/2000/svg"
  width="24"
  height="24"
  viewBox="0 0 24 24"
  fill="none"
  stroke="currentColor"
  stroke-width="2"
  stroke-linecap="round"
  stroke-linejoin="round"
>
  <path d="M8 9h8m-8 4h6m-2 8l-3 -3h-3a3 3 0 0 1 -3 -3v-8a3 3 0 0 1 3 -3h12a3 3 0 0 1 3 3v5m-1.999 7m-2 0a2 2 0 1 0 4 0a2 2 0 1 0 -4 0m2 -3.5v1.5m0 4v1.5m3.031 -5.25l-1.299 .75m-3.463 2l-1.3 .75m0 -3.5l1.3 .75m3.463 2l1.3 .75" />
</svg>

<!--
category: Communication
tags: [settings, configure, gear, adjust, tune, tool, modify, customize, control, setup]
version: "2.10"
unicode: "f95f"
-->
<svg
  xmlns="http://www.w3.org/2000/svg"
  width="24"
  height="24"
  viewBox="0 0 24 24"
  fill="none"
  stroke="currentColor"
  stroke-width="2"
  stroke-linecap="round"
  stroke-linejoin="round"
>
    <path d="M8 9h8M8 13h6M12 21l-3 -3h-3a3 3 0 0 1 -3 -3v-8a3 3 0 0 1 3 -3h12a3 3 0 0 1 3 3v5M19.001 19m-2 0a2 2 0 1 0 4 0a2 2 0 1 0 -4 0M19.001 15.5v1.5M19.001 21v1.5M22.032 17.25l-1.299 .75M17.27 20l-1.3 .75M15.97 17.25l1.3 .75M20.733 20l1.3 .75" />
</svg>
